!!!OTL: 195. Fruehlings Einzug.
!!!COM: Volksweise
!!!ARE: Europa, Mitteleuropa, Deutschland
!!!SCT: B0195
!!!TXL: @@DE
!!!YEM: Copyright 1995, estate of Helmut Schaffrath.
**kern	**text
*ICvox	*
*Ivox	*
*clefG2	*
*M2/4	*
*k[]	*
*C:	*
!LO:TX:a:t=munter.	!
{8g	Die
=1	=1
8.g	Fen-
16e	-ſter
8e	auf,
8cc	die
=2	=2
8.cc	Her-
16g	-ʒen
8g	auf!
8ee	Ge-
=3	=3
2dd	-ſchwin-
=4	=4
4cc	-de!
8r}	.
{8cc	Der
=5	=5
8b	al-
8a	-te
8g	Win-
8a	-ter
=6	=6
8g	will
8f	hin-
8e}	-aus,
{8cc	er
=7	=7
8b	trip-
8a	-pelt
8g	ängſt-
8a	-lich
=8	=8
4g	durch
4f	das
=9	=9
4e	Haus,
8r}	.
{8e	er
=10	=10
8f	win-
8e	-det
8f	lang
8g	ſich
=11	=11
8a	in
8b	der
8cc}	Bruſt
{8cc	und
=12	=12
8a	kramt
8a	ʒu-
8g	-ſam-
8cc	-men
=13	=13
4ee	ſei-
4dd	-nen
=14	=14
4cc	Wuſt.
8r}	.
==	==
!!!AGN: Jahreszeiten - Lied, Fruehling
!!!GTL: Jahreszeitenlieder
!!!ONB: ESAC (Essen Associative Code) Database: BOEHME
!!!AMT: simple duple
!!!AIN: vox
!!!EED: Helmut Schaffrath
!!!EEV: 1.0
!!Volksweiſe in vielen Schulheften
!!@@COMMENT:"Gedicht von Wilhelm Müller (um 1821). Die hier ſtehende Volksweiſe iſt friſcher und
!!leichter als die Mel. von Silcher, welche in den Kinderliedern erſchien, doch ſind die 2 Anfangs-
!!takte hier den Silcherſchen gleich."
!!@@END:
!!!Text: W. Müller
!!!URL-scan: https://archive.org/details/BoehmeVtLieder1895/page/n187/mode/2up
!!!ENC: Anna Maria Matuszewska
!!!EEV: 2024/24/06
*-	*-
